X:1
T:Title
%%score 1 { ( 2 4 6 ) | ( 3 5 ) }
L:1/8
Q:1/4=56
M:4/4
K:Eb
V:1 treble nm="Gesang\nVoice"
V:2 treble nm="Piano"
V:4 treble 
V:6 treble 
V:3 bass 
V:5 bass 
V:1
"^Larghetto schwind ()" z8 | z4 z2 z!p! B, | C2 D E F3 G | E2 F G D4 | G G A G F3 C | E2 F C E3 C | %6
 E3/2 E/ E F _D3 D |[Q:1/4=52]"^rit." D2[Q:1/4=49] E C C2 !fermata!z[Q:1/4=50] B | %8
"^a tempo"[Q:1/4=56] G2 F E F2 G2 | E2 F D E2 z G | B2 A G A2 B2 | _G2 A F G3 F | A2 G F G2 A2 | %13
 F2 G E F3[Q:1/4=52]"^riten." G |[Q:1/4=50] B2 A F G3 B | d2 c A B2 B2 | d3 B c2 B2 | d3 B c2 B2 | %18
[Q:1/4=54] c2 c G B2 A F | G2 G B c2 G E | F2 F D E2 E B | c2 c G B2 A F | G2 G B c2 G E | %23
 F2 F D E2 E B | c2 c G B2 A F | G2 G B c2 G E | F2 F D E2 E2 | E2 E C B,2 B, B, | E8 |] %29
V:2
!mp! ([EG]2 [DF][CE] [B,D]4) | ([EG]2 [DF][CE] [B,D]4) | ([CE]2 [B,D][A,C] [B,D]4) | %3
 ([CE]2 [B,D][A,C] [B,D]4) | ([GB]2 [FA][EG] [FA]4) | ([CE]2 [B,D][A,C] [CE]4) | %6
 ([CE]2 [B,_D][A,C] [B,D]4) |!<(! ([=B,D]2!<)! [CE][_B,D] [A,C]3) !fermata!z | %8
"^a tempo"!p! (G2 FE F2 GB | ce fd e2) (g2 | b2 ag a2 bc' | e'_g' a'f' g'2) z (B | %12
!<(! [DF]2 [CE][=B,D]!<)! [CE]2 [DF][EG]) | %13
 ([FA][Ac]!>(! [=Bd][GB] [Ac]2)!>)!"_ritard." z"_rit." ([GB] | %14
!>(! [Bd]2!>)! [Ac][FA] [GB]3) ([GB] | [df]2 [ce][Ac] [Bd]3) ([Bd] | [df]3 [ce] [eg]2 [df]2 | %17
 [df]3 [ce] [eg]2 [df]2) |"_dolce" ([Ac][ce]) ([Gc][ce]) ([GB][Bd]) ([FA][Ac]) | %19
 ([EG][GB]) ([DG][GB]) ([CE][EG]) ([CE][EG]) | ([DF][FA]) ([DF][FA]) ([B,E][EG]) ([B,E][EG]) | %21
 ([Ac][ce]) ([Gc][ce]) ([GB][Bd]) ([FA][Ac]) | ([EG][GB]) ([DG][GB]) ([CE][EG]) ([CE][EG]) | %23
 ([DF][FA]) ([DF][FA]) ([B,E][EG]) ([B,E][EG]) | ([Ac][ce]) ([Gc][ce]) ([GB][Bd]) ([FA][Ac]) | %25
 ([EG][GB]) ([DG][GB]) ([CE][EG]) ([CE][EG]) | ([DF][FA]) ([DF][FA]) ([B,E][EG]) ([B,E][EG]) | %27
 ([CE][EG]) ([CE][EG]) ([B,E][EG]) ([B,E][EG]) |!>(! !fermata![B,EG]8!>)! |] %29
V:3
 (C2 B,A, [E,G,]4) | (C2 B,A, [E,G,]4) | ([C,E,]2 [B,,F,][A,,E,] [E,,B,,]4) | %3
 ([C,E,]2 [B,,F,][A,,E,] [E,,B,,]4) | ([G,B,]2 [F,A,][E,G,] [F,A,]4) | %5
 ([C,E,]2 [B,,F,][A,,E,] [C,E,]4) | ([C,E,]2 [B,,F,][A,,E,] [B,,F,]4) | %7
 ([G,,F,]2 [C,E,][E,G,] [F,,C,F,]3) !fermata!z | (C2 B,A, B,2 CD |[K:treble] EG AF G2) z2 | %10
 (_d2 cB c2 de | _gb c'a b2) z2 |[K:bass] ([F,A,]2 [E,G,][D,F,] [E,G,]2 [F,A,][G,B,]) | %13
[K:treble] ([A,C][CE] [DF][=B,D] [CE]2) z[K:bass] ([G,B,] | [B,D]2 [A,C][F,A,] [G,B,]3) ([G,B,] | %15
[K:treble] [DF]2 [CE][A,C] [B,D]3) ([B,D] | [DF]3 [CE] [EG]2 [DF]2 | [DF]3 [CE] [EG]2 [DF]2) | %18
[K:bass] ([A,C][CE]) ([G,C][CE]) ([G,B,][B,D]) ([F,A,][A,C]) | %19
 ([E,G,][G,B,]) ([D,G,][G,B,]) ([C,E,][E,G,]) ([C,E,][E,G,]) | %20
 ([D,F,][F,A,]) ([D,F,][F,A,]) ([B,,E,][E,G,]) ([B,,E,][E,G,]) | %21
 ([A,C][CE]) ([G,C][CE]) ([G,B,][B,D]) ([F,A,][A,C]) | %22
 ([E,G,][G,B,]) ([D,G,][G,B,]) ([C,E,][E,G,]) ([C,E,][E,G,]) | %23
 ([D,F,][F,A,]) ([D,F,][F,A,]) ([B,,E,][E,G,]) ([B,,E,][E,G,]) | %24
 ([A,C][CE]) ([G,C][CE]) ([G,B,][B,D]) ([F,A,][A,C]) | %25
 ([E,G,][G,B,]) ([D,G,][G,B,]) ([C,E,][E,G,]) ([C,E,][E,G,]) | %26
 ([D,F,][F,A,]) ([D,F,][F,A,]) ([B,,E,][E,G,]) ([B,,E,][E,G,]) | %27
 ([C,E,][E,G,]) ([C,E,][E,G,]) ([B,,E,][E,G,]) ([B,,E,][E,G,]) | !fermata![E,,E,]8 |] %29
V:4
 x8 | x8 | x8 | x8 | x8 | x8 | x8 | x8 | (E2 DC D2 EF | GB cA B2) x2 | (f2 e_d e2 fg | %11
 b_d' e'c' d'2) x2 | x8 | x8 | x8 | x8 | x8 | x8 | x8 | x8 | x8 | x8 | x8 | x8 | x8 | x8 | x8 | %27
 x8 | x8 |] %29
V:5
 x8 | x8 | x8 | x8 | x8 | x8 | x8 | x8 | (A,2 G,F, G,2 A,B, |[K:treble] CE FD E2) x2 | %10
 (_d2 cB c2 de | _gb c'a b2) x2 |[K:bass] x8 |[K:treble] x7[K:bass] x | x8 |[K:treble] x8 | x8 | %17
 x8 |[K:bass] x8 | x8 | x8 | x8 | x8 | x8 | x8 | x8 | x8 | x8 | x8 |] %29
V:6
 x8 | x8 | x8 | x8 | x8 | x8 | x8 | x8 | x8 | x2 c2 x4 | x8 | x8 | x8 | x8 | x8 | x8 | x8 | x8 | %18
 x8 | x8 | x8 | x8 | x8 | x8 | x8 | x8 | x8 | x8 | x8 |] %29

